packages/sources/assets/src/assets/flag-no.svg

<svg width="28" height="20" viewBox="0 0 28 20" fill="none" xmlns="http://www.w3.org/2000/svg">
<rect x="0.25" y="0.25" width="27.5" height="19.5" rx="1.75" fill="white" stroke="#F5F5F5" stroke-width="0.5"/>
<mask id="mask0_503_3656" style="mask-type:alpha" maskUnits="userSpaceOnUse" x="0" y="0" width="28" height="20">
<rect x="0.25" y="0.25" width="27.5" height="19.5" rx="1.75" fill="white" stroke="white" stroke-width="0.5"/>
</mask>
<g mask="url(#mask0_503_3656)">
<path fill-rule="evenodd" clip-rule="evenodd" d="M8 0H0V8H8V0ZM12 0V8H28V0H12ZM28 12H12V20H28V12ZM8 20V12H0V20H8Z" fill="#F14247"/>
<path fill-rule="evenodd" clip-rule="evenodd" d="M0 10.6667H9.33333V20H10.6667V10.6667H28V9.33333H10.6667V0H9.33333V9.33333H0V10.6667Z" fill="#0A3A85"/>
</g>
</svg>

<svg width="28" height="20" fill="none" xmlns="http://www.w3.org/2000/svg"><rect x=".25" y=".25" width="27.5" height="19.5" rx="1.75" fill="#fff" stroke="#F5F5F5" stroke-width=".5"/><mask id="a" style="mask-type:alpha" maskUnits="userSpaceOnUse" x="0" y="0" width="28" height="20"><rect x=".25" y=".25" width="27.5" height="19.5" rx="1.75" fill="#fff" stroke="#fff" stroke-width=".5"/></mask><g mask="url(#a)" fill-rule="evenodd" clip-rule="evenodd"><path d="M8 0H0v8h8V0Zm4 0v8h16V0H12Zm16 12H12v8h16v-8ZM8 20v-8H0v8h8Z" fill="#F14247"/><path d="M0 10.667h9.333V20h1.334v-9.333H28V9.333H10.667V0H9.333v9.333H0v1.334Z" fill="#0A3A85"/></g></svg>
